X:9773
T:Logie of Buchan. BF12.22
M:6/8
Q:80
C:Browne "C" hand
S:MS12,c1835,Browne Coll.,Lakes
R:Air
O:England
A:Lakes
Z:vmp.Chris Partington
K:D
A3/4-G/4|(F>G).A (A<f).e|(dBB) B2 A3/4-G/4|(F<G).A A<de|fddd2A3/4-G/4|!
|(F>G).A (A<f).e|(dBB) B2 A3/4-G/4|(F<G).A A<de|(fdd)d2A||!
3/4-G/4|(F>G).A (A<f).e|(dBB) B2 A3/4-G/4|(F<G).A A<de|fddd2A3/4-G/4|!
|(F>G).A (A<f).e|(dBB) B2 A3/4-G/4|(F<G).A A<de|(fdd)d2A||!
d3/4-e/4|f3(f>ef) (gfe)|(dBc)d2d3/4-e/4|d-f.d e-d.e|f-d.BB2d3/4-e/4|!
f>gf afe|d-B.cd2d/e/|f-g.f ede|fdBB2|]


